X: 40427
T: Tom Mhic's
R: polka
M: 2/4
K: Dmajor
|:AB cd|ed c>B|AB cd|e2 ec|
A>B cd|ed cB|A>B ce|d2 d2:|
|:af ed|f2 e2|AB cd|e2 ef|
a>f ed|fg/f/ e2|AB ce|d2 d2:|

